public/new-logo.svg

<svg width="56" height="57" viewBox="0 0 56 57" fill="none" xmlns="http://www.w3.org/2000/svg">
<g filter="url(#filter0_d_2969_988)">
<mask id="mask0_2969_988" style="mask-type:alpha" maskUnits="userSpaceOnUse" x="3" y="0" width="50" height="50">
<rect x="3" width="50" height="50" fill="#D9D9D9"/>
</mask>
<g mask="url(#mask0_2969_988)">
<path d="M40.9248 5.31345C43.6915 5.98393 45.8943 8.09509 46.703 10.851L51.3405 26.657C52.1486 29.4111 51.4415 32.3906 49.4856 34.4737L38.2506 46.4399C36.2947 48.523 33.3869 49.3935 30.6222 48.7235L14.7547 44.8781C11.988 44.2076 9.78515 42.0965 8.97654 39.3405L4.33898 23.5345C3.53093 20.7805 4.23797 17.801 6.19386 15.7178L17.4289 3.75171C19.3848 1.66855 22.2926 0.798101 25.0573 1.46811L40.9248 5.31345Z" fill="url(#paint0_linear_2969_988)"/>
<path d="M26.1208 13.2536C26.7591 11.4984 29.2415 11.4984 29.8799 13.2536L32.2081 19.6556C32.4087 20.2072 32.8415 20.6428 33.3917 20.847L39.7861 23.2208C41.5248 23.8662 41.5248 26.3253 39.7861 26.9707L33.3917 29.3445C32.8415 29.5487 32.4087 29.9843 32.2081 30.5359L29.8799 36.9379C29.2415 38.6932 26.7591 38.6931 26.1207 36.9379L23.7925 30.5359C23.5919 29.9843 23.1591 29.5487 22.6089 29.3445L16.2145 26.9707C14.4758 26.3253 14.4758 23.8662 16.2145 23.2208L22.6089 20.847C23.1591 20.6428 23.5919 20.2072 23.7925 19.6556L26.1208 13.2536Z" fill="white"/>
</g>
</g>
<defs>
<filter id="filter0_d_2969_988" x="0.010498" y="1.24609" width="55.6584" height="55.6992" filterUnits="userSpaceOnUse" color-interpolation-filters="sRGB">
<feFlood flood-opacity="0" result="BackgroundImageFix"/>
<feColorMatrix in="SourceAlpha" type="matrix" values="0 0 0 0 0 0 0 0 0 0 0 0 0 0 0 0 0 0 127 0" result="hardAlpha"/>
<feOffset dy="4"/>
<feGaussianBlur stdDeviation="2"/>
<feComposite in2="hardAlpha" operator="out"/>
<feColorMatrix type="matrix" values="0 0 0 0 0 0 0 0 0 0 0 0 0 0 0 0 0 0 0.1 0"/>
<feBlend mode="normal" in2="BackgroundImageFix" result="effect1_dropShadow_2969_988"/>
<feBlend mode="normal" in="SourceGraphic" in2="effect1_dropShadow_2969_988" result="shape"/>
</filter>
<linearGradient id="paint0_linear_2969_988" x1="5" y1="18.7688" x2="51.2686" y2="36.0264" gradientUnits="userSpaceOnUse">
<stop stop-color="#CB77FF"/>
<stop offset="0.5" stop-color="#FF5CE5"/>
<stop offset="1" stop-color="#B640FF"/>
</linearGradient>
</defs>
</svg>

<svg xmlns="http://www.w3.org/2000/svg" width="56" height="57" fill="none"><g filter="url(#a)"><mask id="b" width="50" height="50" x="3" y="0" maskUnits="userSpaceOnUse" style="mask-type:alpha"><path fill="#D9D9D9" d="M3 0h50v50H3z"/></mask><g mask="url(#b)"><path fill="url(#c)" d="M40.925 5.313a8 8 0 0 1 5.778 5.538l4.637 15.806a8.097 8.097 0 0 1-1.854 7.817L38.25 46.44a7.904 7.904 0 0 1-7.629 2.284l-15.867-3.846a8 8 0 0 1-5.778-5.538L4.339 23.535a8.098 8.098 0 0 1 1.855-7.816L17.429 3.752a7.904 7.904 0 0 1 7.628-2.284l15.868 3.845Z"/><path fill="#fff" d="M26.12 13.254c.64-1.756 3.121-1.756 3.76 0l2.328 6.402a2 2 0 0 0 1.184 1.191l6.394 2.374c1.739.645 1.739 3.104 0 3.75l-6.394 2.373a2 2 0 0 0-1.184 1.192l-2.328 6.402c-.639 1.755-3.12 1.755-3.76 0l-2.328-6.402a2 2 0 0 0-1.183-1.192l-6.395-2.373c-1.738-.646-1.738-3.105 0-3.75l6.395-2.374a2 2 0 0 0 1.183-1.191l2.329-6.402Z"/></g></g><defs><linearGradient id="c" x1="5" x2="51.269" y1="18.769" y2="36.026" gradientUnits="userSpaceOnUse"><stop stop-color="#CB77FF"/><stop offset=".5" stop-color="#FF5CE5"/><stop offset="1" stop-color="#B640FF"/></linearGradient><filter id="a" width="55.658" height="55.699" x=".01" y="1.246" color-interpolation-filters="sRGB" filterUnits="userSpaceOnUse"><feFlood flood-opacity="0" result="BackgroundImageFix"/><feColorMatrix in="SourceAlpha" result="hardAlpha" values="0 0 0 0 0 0 0 0 0 0 0 0 0 0 0 0 0 0 127 0"/><feOffset dy="4"/><feGaussianBlur stdDeviation="2"/><feComposite in2="hardAlpha" operator="out"/><feColorMatrix values="0 0 0 0 0 0 0 0 0 0 0 0 0 0 0 0 0 0 0.1 0"/><feBlend in2="BackgroundImageFix" result="effect1_dropShadow_2969_988"/><feBlend in="SourceGraphic" in2="effect1_dropShadow_2969_988" result="shape"/></filter></defs></svg>
